coreui/free/cil-address-book.svg

<svg xmlns="http://www.w3.org/2000/svg" viewBox="0 0 512 512">
  <path fill="var(--ci-primary-color, currentColor)" d="M496,144.768V111.232H456.768V42a25,25,0,0,0-25.179-24.768H80.411A25,25,0,0,0,55.232,42V472a25,25,0,0,0,25.179,24.768H431.589A25,25,0,0,0,456.768,472V400.768H496V367.232H456.768V272.768H496V239.232H456.768V144.768Zm-72.768,94.464H376v33.536h47.232v94.464H376v33.536h47.232v62.464H88.768V50.768H423.232v60.464H376v33.536h47.232Z" class="ci-primary"/>
  <path fill="var(--ci-primary-color, currentColor)" d="M313.639,306.925h0l-28.745-18.685,13.82-33.655V201.714a65.714,65.714,0,1,0-131.428,0v52.557l12.721,34.684-27.646,17.97A48.972,48.972,0,0,0,130,348.129V400H336V348.129A48.972,48.972,0,0,0,313.639,306.925ZM304,368H162V348.129a17.084,17.084,0,0,1,7.8-14.373l49.033-31.872-19.547-53.3V201.714a33.714,33.714,0,0,1,67.428,0v46.557l-21.5,52.347L296.2,333.756h0a17.084,17.084,0,0,1,7.8,14.373Z" class="ci-primary"/>
</svg>

<svg viewBox="0 0 512 512" xmlns="http://www.w3.org/2000/svg"><g><path d="M496 144.76v-33.54h-39.24V41.988h0c-.13-13.79-11.4-24.87-25.18-24.77H80.4v0c-13.79-.1-25.06 10.98-25.18 24.76v430 0c.12 13.78 11.39 24.86 25.17 24.76h351.17 0c13.78.09 25.05-10.99 25.17-24.77v-71.24h39.23v-33.536h-39.24v-94.47h39.23v-33.54h-39.24v-94.464Zm-72.77 94.46h-47.24v33.53h47.23v94.464h-47.24v33.536h47.23v62.464H88.74V50.74H423.21v60.46h-47.24v33.53h47.23Z"/><path d="M313.639 306.92v0l-28.75-18.69 13.82-33.66v-52.88 0c0-36.3-29.43-65.72-65.72-65.72 -36.3 0-65.714 29.42-65.714 65.71v52.55l12.72 34.68 -27.65 17.97h-.001c-13.98 9.04-22.4 24.56-22.37 41.2v51.87h206v-51.88 0c.03-16.65-8.4-32.17-22.37-41.21Zm-9.64 61.07h-142v-19.88 0c-.02-5.81 2.92-11.22 7.8-14.38l49.03-31.88 -19.55-53.3v-46.87h-.001c0-18.62 15.09-33.72 33.71-33.72 18.61 0 33.71 15.09 33.71 33.71v46.55l-21.5 52.34 50.98 33.13v0 0c4.87 3.15 7.81 8.56 7.8 14.37Z"/></g></svg>
